icons/evolvere-blue-folders-flat-vivid-dark-fallback/apps/64/address-book.svg

<?xml version="1.0" encoding="UTF-8" standalone="no"?>
<!-- Created with Inkscape (http://www.inkscape.org/) -->

<svg
   xmlns:dc="http://purl.org/dc/elements/1.1/"
   xmlns:cc="http://creativecommons.org/ns#"
   xmlns:rdf="http://www.w3.org/1999/02/22-rdf-syntax-ns#"
   xmlns:svg="http://www.w3.org/2000/svg"
   xmlns="http://www.w3.org/2000/svg"
   xmlns:sodipodi="http://sodipodi.sourceforge.net/DTD/sodipodi-0.dtd"
   xmlns:inkscape="http://www.inkscape.org/namespaces/inkscape"
   width="64"
   height="64"
   id="svg13094"
   version="1.1"
   inkscape:version="0.91+devel r"
   sodipodi:docname="address-book.svg">
  <sodipodi:namedview
     id="base"
     pagecolor="#ffffff"
     bordercolor="#666666"
     borderopacity="1.0"
     inkscape:pageopacity="0"
     inkscape:pageshadow="2"
     inkscape:zoom="11.313708"
     inkscape:cx="37.209337"
     inkscape:cy="31.029307"
     inkscape:document-units="px"
     inkscape:current-layer="svg13094"
     showgrid="true"
     inkscape:snap-bbox="true"
     inkscape:bbox-paths="true"
     inkscape:bbox-nodes="true"
     inkscape:snap-bbox-edge-midpoints="true"
     inkscape:snap-bbox-midpoints="true"
     inkscape:object-paths="true"
     inkscape:snap-intersection-paths="true"
     inkscape:object-nodes="true"
     inkscape:snap-smooth-nodes="true"
     inkscape:snap-midpoints="true"
     inkscape:snap-object-midpoints="true"
     inkscape:snap-center="true"
     showguides="true"
     inkscape:guide-bbox="true"
     inkscape:window-width="1920"
     inkscape:window-height="1023"
     inkscape:window-x="-10"
     inkscape:window-y="35"
     inkscape:window-maximized="1"
     inkscape:snap-global="true"
     fit-margin-top="0"
     fit-margin-left="0"
     fit-margin-right="0"
     fit-margin-bottom="0"
     showborder="true"
     inkscape:showpageshadow="false"
     inkscape:snap-page="true">
    <inkscape:grid
       type="xygrid"
       id="grid3075"
       empspacing="5"
       visible="true"
       enabled="true"
       snapvisiblegridlinesonly="true"
       originx="1.6362304e-08px"
       originy="18px" />
  </sodipodi:namedview>
  <defs
     id="defs13096" />
  <metadata
     id="metadata13099">
    <rdf:RDF>
      <cc:Work
         rdf:about="">
        <dc:format>image/svg+xml</dc:format>
        <dc:type
           rdf:resource="http://purl.org/dc/dcmitype/StillImage" />
        <dc:title></dc:title>
      </cc:Work>
    </rdf:RDF>
  </metadata>
  <path
     sodipodi:nodetypes="ccccccccccc"
     id="path3009"
     d="m 0,8 0,26 0,28 2,2 30,0 30,0 2,-2 0,-28 0,-26 -32,0 z"
     style="color:#000000;fill:#d78728;fill-opacity:1;fill-rule:nonzero;stroke:none;stroke-width:2.28571415;marker:none;visibility:visible;display:inline;overflow:visible;enable-background:accumulate"
     inkscape:connector-curvature="0" />
  <path
     sodipodi:nodetypes="ccccccccc"
     id="path3016"
     d="M 2,0 0,1 0,8 32,8 64,8 64,1 62,0 32,0 z"
     style="color:#000000;fill:#ffce16;fill-opacity:1;fill-rule:nonzero;stroke:none;stroke-width:2.28571415;marker:none;visibility:visible;display:inline;overflow:visible;enable-background:accumulate"
     inkscape:connector-curvature="0" />
  <path
     d="M 64,10 62,8 64,7 z"
     id="path3028"
     style="fill:#ecac20;fill-opacity:1"
     inkscape:connector-curvature="0"
     sodipodi:nodetypes="cccc" />
  <g
     id="g3043"
     inkscape:export-filename="folder.png"
     inkscape:export-xdpi="90"
     inkscape:export-ydpi="90"
     transform="translate(-0.62500009,0.082283)" />
  <g
     id="scalable"
     transform="matrix(1.0385892,0,0,1.0385892,1214.7222,1878.8121)"
     inkscape:label="#g3701"
     style="fill:#ffffff" />
  <path
     style="color:#000000;fill:#d78728;fill-opacity:1;fill-rule:nonzero;stroke:none;stroke-width:2.28571415;marker:none;visibility:visible;display:inline;overflow:visible;enable-background:accumulate"
     d="M 3 2 L 3 4 L 61 4 L 61 6 L 64 6 L 64 4 L 64 2 L 3 2 z "
     id="rect3178" />
  <path
     style="color:#000000;fill:#784300;fill-opacity:0.33273703;fill-rule:nonzero;stroke:none;stroke-width:1;marker:none;visibility:visible;display:inline;overflow:visible;enable-background:accumulate"
     d="M 2.5,0 0,1 0,3.34375 0,8 0,34 0,62 2.5,64 12,64 12,8 12,0 z"
     id="rect3007"
     inkscape:connector-curvature="0"
     sodipodi:nodetypes="ccccccccccc" />
  <path
     id="path3952"
     d="M 3,4 61,4 61,6 3,6 z"
     style="color:#000000;fill:#f0f0f0;fill-opacity:1;fill-rule:nonzero;stroke:none;stroke-width:1;marker:none;visibility:visible;display:inline;overflow:visible;enable-background:accumulate"
     inkscape:connector-curvature="0" />
  <path
     style="color:#000000;fill:#784300;fill-opacity:0.33273704;fill-rule:nonzero;stroke:none;stroke-width:1;marker:none;visibility:visible;display:inline;overflow:visible;enable-background:accumulate;opacity:1;stroke-linecap:butt;stroke-linejoin:miter;stroke-miterlimit:4;stroke-dasharray:none;stroke-dashoffset:0;stroke-opacity:1"
     d="M 3,2 5,4 5,6 3,6 z"
     id="rect3143"
     inkscape:connector-curvature="0"
     sodipodi:nodetypes="ccccc" />
  <rect
     style="color:#000000;fill:#e6e6e6;fill-opacity:1;fill-rule:nonzero;stroke:none;stroke-width:2;marker:none;visibility:visible;display:inline;overflow:visible;enable-background:accumulate"
     id="rect3838"
     width="1"
     height="5"
     x="10"
     y="58"
     rx="0.5"
     ry="0.5" />
  <rect
     style="color:#000000;fill:#e6e6e6;fill-opacity:1;fill-rule:nonzero;stroke:none;stroke-width:2;marker:none;visibility:visible;display:inline;overflow:visible;enable-background:accumulate"
     id="rect3846"
     width="1"
     height="5"
     x="10"
     y="44"
     rx="0.5"
     ry="0.5" />
  <rect
     style="color:#000000;fill:#e6e6e6;fill-opacity:1;fill-rule:nonzero;stroke:none;stroke-width:2;marker:none;visibility:visible;display:inline;overflow:visible;enable-background:accumulate"
     id="rect3854"
     width="1"
     height="5"
     x="10"
     y="30"
     rx="0.5"
     ry="0.5" />
  <rect
     ry="0.5"
     rx="0.5"
     y="16"
     x="10"
     height="5"
     width="1"
     id="rect3833"
     style="color:#000000;fill:#e6e6e6;fill-opacity:1;fill-rule:nonzero;stroke:none;stroke-width:2;marker:none;visibility:visible;display:inline;overflow:visible;enable-background:accumulate" />
  <rect
     ry="0.5"
     rx="0.5"
     y="51"
     x="10"
     height="5"
     width="1"
     id="rect3842"
     style="color:#000000;fill:#e6e6e6;fill-opacity:1;fill-rule:nonzero;stroke:none;stroke-width:2;marker:none;visibility:visible;display:inline;overflow:visible;enable-background:accumulate" />
  <rect
     ry="0.5"
     rx="0.5"
     y="37"
     x="10"
     height="5"
     width="1"
     id="rect3850"
     style="color:#000000;fill:#e6e6e6;fill-opacity:1;fill-rule:nonzero;stroke:none;stroke-width:2;marker:none;visibility:visible;display:inline;overflow:visible;enable-background:accumulate" />
  <rect
     ry="0.5"
     rx="0.5"
     y="23"
     x="10"
     height="5"
     width="1"
     id="rect3859"
     style="color:#000000;fill:#e6e6e6;fill-opacity:1;fill-rule:nonzero;stroke:none;stroke-width:2;marker:none;visibility:visible;display:inline;overflow:visible;enable-background:accumulate" />
  <rect
     style="color:#000000;fill:#e6e6e6;fill-opacity:1;fill-rule:nonzero;stroke:none;stroke-width:2;marker:none;visibility:visible;display:inline;overflow:visible;enable-background:accumulate"
     id="rect3053"
     width="1"
     height="5"
     x="10"
     y="9"
     rx="0.5"
     ry="0.5" />
  <path
     style="color:#000000;fill:#ffffff;fill-opacity:0.81484795;fill-rule:nonzero;stroke:none;stroke-width:2;marker:none;visibility:visible;display:inline;overflow:visible;enable-background:accumulate"
     d="m 35.053541,18.280242 c -5.036778,0 -6.11049,3.695032 -5.997568,5.884328 l 0.170334,1.867182 c -1.40899,0.01745 -0.726699,3.807162 0.28294,3.677586 0.444553,1.609302 1.094014,2.869844 1.975981,3.637779 0.188099,1.24722 0.06344,1.277195 0,2.37898 -3.442542,2.284455 -9.119424,3.806051 -9.119424,4.757961 0,2.181366 5.091177,4.75796 12.687895,4.75796 7.596719,0 12.687895,-2.576594 12.687895,-4.75796 0,-0.95191 -5.676722,-2.473188 -9.119425,-4.757961 -0.06027,-1.101785 -0.187146,-1.131919 0,-2.37898 0.88181,-0.767935 1.530002,-2.028477 1.974554,-3.637779 1.009798,0.130052 1.692089,-3.659505 0.28294,-3.677586 l 0.170335,-1.867182 c 0.112605,-2.189296 -0.960949,-5.884328 -5.997568,-5.884328 z"
     id="path4023"
     inkscape:connector-curvature="0"
     sodipodi:nodetypes="ccccccsssccccccc" />
  <path
     style="color:#000000;fill:#784300;fill-opacity:0.07781753;fill-rule:nonzero;stroke:none;stroke-width:1;marker:none;visibility:visible;display:inline;overflow:visible;enable-background:accumulate;opacity:1;stroke-linecap:butt;stroke-linejoin:miter;stroke-miterlimit:4;stroke-dasharray:none;stroke-dashoffset:0;stroke-opacity:1"
     d="m 39.931434,20.333277 c 0.922982,1.208589 1.172216,2.704484 1.114913,3.818579 l -0.167237,1.867481 c 1.409149,0.01808 0.73107,3.809266 -0.278728,3.679214 -0.444552,1.609301 -1.097163,2.883408 -1.978972,3.651342 -0.187146,1.247062 -0.06027,1.267407 0,2.369192 0.268329,0.178077 0.572333,0.36069 0.864058,0.529584 -0.06019,-0.681622 -0.128857,-0.96246 0.02787,-2.006845 0.881809,-0.767934 1.53442,-2.042041 1.978972,-3.651342 1.009797,0.130052 1.687877,-3.661134 0.278728,-3.679215 l 0.167237,-1.86748 c 0.07267,-1.412717 -0.345565,-3.441239 -2.006844,-4.71051 z m 7.804395,20.235682 c -0.123135,2.163721 -5.178724,4.682637 -12.682142,4.682637 -5.344135,0 -9.435921,-1.299541 -11.399992,-2.815157 1.310484,1.875589 5.907757,3.707088 12.291923,3.707088 7.596718,0 12.682142,-2.58489 12.682142,-4.766256 0,-0.229063 -0.344733,-0.510604 -0.891931,-0.808312 z"
     id="rect2991"
     inkscape:connector-curvature="0" />
  <path
     style="fill:#ffffff;fill-opacity:0.81484795;fill-rule:nonzero;stroke:none"
     id="path2987"
     d="m 43.844658,50.896454 c -1.428091,0 -2.585788,1.157696 -2.585788,2.585788 0,0.08926 0.0047,0.182426 0.01347,0.269352 3.9e-4,0.0045 -4.1e-4,0.009 0,0.01347 0.0088,0.08234 0.02407,0.162575 0.0404,0.242418 0.222615,1.328552 1.245554,2.680628 2.531917,3.784407 1.286363,-1.103779 2.309303,-2.455855 2.531918,-3.784407 0.01634,-0.07984 0.03161,-0.16008 0.0404,-0.242418 4.1e-4,-0.0045 -3.91e-4,-0.009 0,-0.01347 0.0088,-0.08692 0.01347,-0.180097 0.01347,-0.269352 0,-1.428092 -1.157697,-2.585788 -2.585788,-2.585788 z m 0,1.154389 c 0.787488,0 1.431399,0.64391 1.431399,1.431399 0,0.787487 -0.643911,1.431399 -1.431399,1.431399 -0.787488,0 -1.431398,-0.643912 -1.431398,-1.431399 0,-0.787489 0.64391,-1.431399 1.431398,-1.431399 z"
     inkscape:connector-curvature="0"
     sodipodi:nodetypes="sscccccccsssssss" />
  <text
     xml:space="preserve"
     style="font-size:8.68809319px;font-style:normal;font-variant:normal;font-weight:bold;font-stretch:normal;line-height:125%;letter-spacing:0px;word-spacing:0px;fill:#ffffff;fill-opacity:0.81484795;stroke:none;font-family:Futura LT;-inkscape-font-specification:Futura LT Bold;"
     x="23.633512"
     y="57.619583"
     id="text3932"
     sodipodi:linespacing="125%"><tspan
       sodipodi:role="line"
       id="tspan3934"
       x="23.633512"
       y="57.619583">@</tspan></text>
  <path
     id="path2989"
     d="m 35.707946,51.117141 c -1.782239,0 -3.227029,1.44479 -3.227029,3.227029 0,0.89112 0.361441,1.697634 0.945419,2.28161 l -0.945419,0.945419 3.227029,0 c 1.782239,0 3.227029,-1.444789 3.227029,-3.227029 0,-1.782238 -1.44479,-3.227029 -3.227029,-3.227029 z m -2.016893,2.823651 0.806757,0 0,0.806756 -0.806757,0 0,-0.806756 z m 1.613515,0 0.806756,0 0,0.806756 -0.806756,0 0,-0.806756 z m 1.613514,0 0.806757,0 0,0.806756 -0.806757,0 0,-0.806756 z"
     style="color:#000000;fill:#ffffff;fill-opacity:0.81484795;fill-rule:nonzero;stroke:none;stroke-width:2;marker:none;visibility:visible;display:inline;overflow:visible;enable-background:accumulate"
     inkscape:connector-curvature="0" />
  <path
     style="color:#000000;fill:#784300;fill-opacity:0.33273704;fill-rule:nonzero;stroke:none;stroke-width:1;marker:none;visibility:visible;display:inline;overflow:visible;enable-background:accumulate;opacity:1;stroke-linecap:butt;stroke-linejoin:miter;stroke-miterlimit:4;stroke-dasharray:none;stroke-dashoffset:0;stroke-opacity:1"
     d="M 50.454545,7 59,6 c 0.250111,-0.029268 -0.01495,1.7234038 0,2 l 1,18.5 c 0.01495,0.276596 -0.202727,0.5 -0.454545,0.5 L 55,22 50.454545,27 C 50.285154,27.18633 50,26.777 50,26.5 l 0,-19 C 50,7.223 50.204434,7.0292683 50.454545,7 z"
     id="rect3994"
     inkscape:connector-curvature="0"
     sodipodi:nodetypes="ssssscssss" />
  <path
     sodipodi:nodetypes="ssssscssss"
     inkscape:connector-curvature="0"
     id="path4008"
     d="m 49.454545,6 9.09091,0 C 58.797273,6 59,6.223 59,6.5 l 0,19 C 59,25.777 58.797273,26 58.545455,26 L 54,21 49.454545,26 C 49.285154,26.18633 49,25.777 49,25.5 l 0,-19 C 49,6.223 49.202727,6 49.454545,6 z"
     style="color:#000000;fill:#ba460e;fill-opacity:1;fill-rule:nonzero;stroke:none;stroke-width:2;marker:none;visibility:visible;display:inline;overflow:visible;enable-background:accumulate" />
  <path
     style="color:#000000;display:inline;overflow:visible;visibility:visible;fill:#ec611c;fill-opacity:1;fill-rule:nonzero;stroke:none;stroke-width:1.54919338;marker:none;enable-background:accumulate"
     d="M 49,6 59,6 59,9 49,9 Z"
     id="rect3997"
     inkscape:connector-curvature="0" />
  <path
     style="fill:#e3b655;fill-opacity:1;fill-rule:nonzero"
     d="M 0,7 0,10 2,8 Z"
     id="path4298"
     inkscape:connector-curvature="0"
     sodipodi:nodetypes="cccc" />
</svg>

<svg xmlns="http://www.w3.org/2000/svg" viewBox="0 0 64 64"><g color="#000"><path d="m0 8v26 28l2 2h30 30l2-2v-28-26h-32z" fill="#d78728"/><path d="m2 0l-2 1v7h32 32v-7l-2-1h-30z" fill="#ffce16"/></g><path d="m64 10l-2-2 2-1z" fill="#ecac20"/><g color="#000"><path d="m3 2v2h58v2h3v-2-2h-61" fill="#d78728"/><path d="m2.5 0l-2.5 1v2.344 4.656 26 28l2.5 2h9.5v-56-8z" fill="#784300" fill-opacity=".333"/><path d="m3 4h58v2h-58z" fill="#f0f0f0"/><path d="m3 2l2 2v2h-2z" fill-opacity=".333" fill="#784300"/><g fill="#e6e6e6"><rect width="1" height="5" x="10" y="58" rx=".5"/><rect width="1" height="5" x="10" y="44" rx=".5"/><rect width="1" height="5" x="10" y="30" rx=".5"/><rect rx=".5" y="16" x="10" height="5" width="1"/><rect rx=".5" y="51" x="10" height="5" width="1"/><rect rx=".5" y="37" x="10" height="5" width="1"/><rect rx=".5" y="23" x="10" height="5" width="1"/><rect width="1" height="5" x="10" y="9" rx=".5"/></g><path d="m35.05 18.28c-5.04 0-6.11 3.695-5.998 5.884l.17 1.867c-1.409.017-.727 3.807.283 3.678.445 1.609 1.094 2.87 1.976 3.638.188 1.247.063 1.277 0 2.379-3.443 2.284-9.119 3.806-9.119 4.758 0 2.181 5.091 4.758 12.688 4.758 7.597 0 12.688-2.577 12.688-4.758 0-.952-5.677-2.473-9.119-4.758-.06-1.102-.187-1.132 0-2.379.882-.768 1.53-2.028 1.975-3.638 1.01.13 1.692-3.66.283-3.678l.17-1.867c.113-2.189-.961-5.884-5.998-5.884z" fill="#fff" fill-opacity=".815"/><path d="m39.931 20.333c.923 1.209 1.172 2.704 1.115 3.819l-.167 1.867c1.409.018.731 3.809-.279 3.679-.445 1.609-1.097 2.883-1.979 3.651-.187 1.247-.06 1.267 0 2.369.268.178.572.361.864.53-.06-.682-.129-.962.028-2.01.882-.768 1.534-2.042 1.979-3.651 1.01.13 1.688-3.661.279-3.679l.167-1.867c.073-1.413-.346-3.441-2.01-4.711m7.804 20.236c-.123 2.164-5.179 4.683-12.682 4.683-5.344 0-9.436-1.3-11.4-2.815 1.31 1.876 5.908 3.707 12.292 3.707 7.597 0 12.682-2.585 12.682-4.766 0-.229-.345-.511-.892-.808" fill-opacity=".078" fill="#784300"/></g><g fill="#fff" fill-opacity=".815"><path d="m43.845 50.896c-1.428 0-2.586 1.158-2.586 2.586 0 .089.005.182.013.269 0 .005 0 .009 0 .013.009.082.024.163.04.242.223 1.329 1.246 2.681 2.532 3.784 1.286-1.104 2.309-2.456 2.532-3.784.016-.08.032-.16.04-.242 0-.005 0-.009 0-.013.009-.087.013-.18.013-.269 0-1.428-1.158-2.586-2.586-2.586m0 1.154c.787 0 1.431.644 1.431 1.431 0 .787-.644 1.431-1.431 1.431-.787 0-1.431-.644-1.431-1.431 0-.787.644-1.431 1.431-1.431"/><text x="23.634" y="57.62" font-family="Futura LT" word-spacing="0" line-height="125%" font-weight="bold" letter-spacing="0" font-size="8.688"><tspan x="23.634" y="57.62">@</tspan></text><path d="m35.708 51.12c-1.782 0-3.227 1.445-3.227 3.227 0 .891.361 1.698.945 2.282l-.945.945h3.227c1.782 0 3.227-1.445 3.227-3.227 0-1.782-1.445-3.227-3.227-3.227m-2.02 2.824h.807v.807h-.807v-.807m1.614 0h.807v.807h-.807v-.807m1.614 0h.807v.807h-.807v-.807" color="#000"/></g><g color="#000"><path d="m50.45 7l8.545-1c.25-.029-.015 1.723 0 2l1 18.5c.015.277-.203.5-.455.5l-4.545-5-4.545 5c-.169.186-.455-.223-.455-.5v-19c0-.277.204-.471.455-.5" fill-opacity=".333" fill="#784300"/><g fill-opacity="1"><path d="m49.45 6h9.09c.252 0 .455.223.455.5v19c0 .277-.203.5-.455.5l-4.545-5-4.545 5c-.169.186-.455-.223-.455-.5v-19c0-.277.203-.5.455-.5" fill="#ba460e"/><path d="m49 6h10v3h-10" fill="#ec611c"/></g></g><path d="m0 7v3l2-2" fill="#e3b655" fill-opacity="1"/></svg>
